X: 681
M: 6/8
L: 1/8
K: Am
|:\
cBA ceB | cBA ^GBE | ABc B2A | B2^G E3 |\
edc def | edc BdG | cde dcB | c2c c3 :|
|:\
cec BdB | cec BdB | ceA ^GEG | A2A A3 :|

